!! 00026] TT[TB
!! Eigene Aufnahme
!!!OTL: Songren libie shui dongxi
!!!ARE: Asia, China,ˇGuangdong, Meixian
!! Ethnic Group: Han
!! II, 408
!!!SCT: C0250
!!!YEM: Copyright 1995, estate of Helmut Schaffrath.
**kern
*ICvox
*Ivox
*M2/4
*k[b-]
*F:
{8a
4.a
=1
16g
16a
4g
8a
=2
16g
16a
16g
16f
4d
=3
16d
16f
4g
16a
16a}
=4
{16g
16f
32dd
32f
[16a
4a]
=5
16g
16a
16g
16f
4d
=6
4.g
16g
16f
=7
8d
4.f
=8
4d
4r}
=9
{8d
4.d
=10
8f
4g
16a
16a
=11
8a
8a
4g
=12
8d
4.f}
=13
{8g
4.d
=14
8d
8d
8g
16a
16a
=15
4.g
16g
16f
=16
8d
4.d
=17
4d
4r}
=18
{8a
4.a
=19
16g
16a
4g
16a
16a
=20
16g
16a
16g
16f
4d
=21
16d
16f
4g
16a
16a}
=22
{8a
4a
16g
16f
=23
8d
8d
4d
=24
4.g
16g
16f
=25
8d
4.f
=26
4d
4r}
=27
{8d
4.d
=28
8f
4g
16a
16a
=29
8d
8d
4d
=30
8d
4.f}
=31
{8g
4.d
=32
8f
8d
8g
16a
16a
=33
4.g
16g
16f
=34
8d
[4.d
=35
4d]
4r}
=36
{16d
16f
4.d
=37
8f
4g
16a
16a
=38
8f
16g
16f
4d
=39
16d
16f
4g
16a
16a}
=40
{8f
4.a
=41
16g
16a
16g
16f
4d
=42
4.g
16g
16f
=43
8d
4.f
=44
4d
4r}
=45
{8d
4.d
=46
8d
8d
8g
16a
16a
=47
8a
8a
4g
=48
8d
4.f}
=49
{8g
4.d
=50
8f
8d
8g
16a
16a
=51
4.g
16g
16f
=52
8d
[4.d
=53
4d]
4r}
=54
{16d
16f
4.d
=55
16d
16f
4g
16a
16a
=56
8g
16g
16f
4d
=57
16d
16f
4g
16a
16a}
=58
{16g
16f
4.d
=59
8d
8d
4d
=60
4.g
16g
16f
=61
8d
4.f
=62
4d
4r}
=63
{8d
4.d
=64
8f
4g
16a
16a
=65
4.g
8d
=66
8d
4.f}
=67
{8g
4.d
=68
8f
8d
8g
16a
16a
=69
4.g
16g
16f
=70
8d
[4.d
=71
4d]
4r}
=72
{16d
16f
4.d
=73
16d
16f
4g
16a
16a
=74
8g
16g
16f
4d
=75
16d
16f
4g
16a
16a}
=76
{8g
4.d
=77
8f
8d
4d
=78
4.g
16f
16g
=79
8d
4.f
=80
4d
4r}
=81
{8d
4.d
=82
8f
8d
8g
16a
16a
=83
4.g
8d
=84
8d
4.f}
=85
{16g
16f
4.d
=86
8f
8d
8g
16a
16a
=87
4.g
16g
16f
=88
8d
[4.d
=89
4d]
4r}
==
!!!AGN: Shange, Songkou zhengban shange. NannÅ liqing
!! besonders typisch fuer keren. Inhalt: Eine Frau konnte ihren Mann
!!    nicht von Geschaeftsreisen abhalten. Sie folgte ihm am Fluss,
!!    sang dieses Lied, und er kam zurueck.
!!    Der Saenger Lai Yuan Shen ist Student an der Guangzhouer Musik-
!!    hochschule und war frueher selbst Landarbeiter. Aufgenommen am
!!    5.5.87
!!    Einige Fermaten, Glissandi, zahlreiche Verzierungen. In -6___0___ ist
!!    immer ein Glissando von -6 auf -3 notiert.
!!!ONB: ESAC (Essen Associative Code) Database: CHINA
!!!AMT: simple duple
!!!AIN: vox
!!!EED: Helmut Schaffrath
!!!EEV: 1.0
*-
!!!ONB: Tied note syntax fixed by Craig Sapp, 2004/05/03/
